X: 1
T: Polka for Marcia
C: Vince O'Donnell Sep 6,2010
R: polka, reel
Z: 2017 John Chambers <jc:trillian.mit.edu>
S: handout at Roaring Jelly practice
M: 2/4
L: 1/16
K: A
|:\
"A"E2c2 "E7"BcdB | "A"cefg aAce |\
agfe "F#m"Acea | "Bm"fedc "E7"B2E2 |
"A"A2c2 "Bm"Bcde | "C#m"cdef "D"defg |\
"A"aAgA fAeA | "D"dB"E7"ge "A"a2 :|
|:\
"F#m"fc (3ccc fgaf | "C#7"^ec (3ccc eceg |\
"F#m"fc (3ccc fgaf | "E"gaba g4 |
  "A"ac (3ccc agfa | "E"gaba "C#7"g4 |\
"F#m"fc (3ccc fgaf |1 "C#7"g4 g4 :|2 "C#7"g4 "E7"g4 |]
